icons/lines/profile-twouser.svg

<svg xmlns="http://www.w3.org/2000/svg" width="24" height="24" viewBox="0 0 24 24" fill="none" stroke="currentColor" stroke-width="2" stroke-linecap="round" stroke-linejoin="round" >
  <path d="M9.16006 10.87C9.06006 10.86 8.94006 10.86 8.83006 10.87C6.45006 10.79 4.56006 8.84 4.56006 6.44C4.56006 3.99 6.54006 2 9.00006 2C11.4501 2 13.4401 3.99 13.4401 6.44C13.4301 8.84 11.5401 10.79 9.16006 10.87Z"/>
  <path d="M16.4098 4C18.3498 4 19.9098 5.57 19.9098 7.5C19.9098 9.39 18.4098 10.93 16.5398 11C16.4598 10.99 16.3698 10.99 16.2798 11"/>
  <path d="M4.16021 14.56C1.74021 16.18 1.74021 18.82 4.16021 20.43C6.91021 22.27 11.4202 22.27 14.1702 20.43C16.5902 18.81 16.5902 16.17 14.1702 14.56C11.4302 12.73 6.92021 12.73 4.16021 14.56Z"/>
  <path d="M18.3398 20C19.0598 19.85 19.7398 19.56 20.2998 19.13C21.8598 17.96 21.8598 16.03 20.2998 14.86C19.7498 14.44 19.0798 14.16 18.3698 14"/>
  </svg>

<svg xmlns="http://www.w3.org/2000/svg" width="24" height="24" viewBox="0 0 24 24" fill="none" stroke="currentColor" stroke-width="2" stroke-linecap="round" stroke-linejoin="round">
  <path d="M16.41 4a1 1 0 0 1 .13 7 1 1 0 0 0-.26 0" />
  <path d="M18.34 20c.72-.15 1.4-.44 1.96-.87 1.56-1.17 1.56-3.1 0-4.27-.55-.42-1.22-.7-1.93-.86" />
  <path d="M4.16 14.56c-2.42 1.62-2.42 4.26 0 5.87 2.75 1.84 7.26 1.84 10.01 0 2.42-1.62 2.42-4.26 0-5.87-2.74-1.83-7.25-1.83-10.01 0" />
  <path d="M9.16 10.87a2 2 0 0 0-.33 0 4.42 4.42 0 1 1 .33 0" />
</svg>
